X: 1
T: Katy Hill
P: piffero primo a0620
O: cfg bk2
%R: march
F: http://ancients.sudburymuster.org/mus/ssp/pdf/ashgroveF.pdf
Z: 2019 John Chambers <jc:trillian.mit.edu>
M: 2/4
L: 1/16
K: G
D2 |\
G2A2 B2d2 | Tg2fg e2d2 | B2G2 d2G2 | ABAG F2D2 |\
G2A2 B2d2 | Tg2fg e2d2 | B2G2 ABAF | G4 z2 :|
|: d2 |\
Tg2f2 e2d2 | Tg2f2 e2d2 | B2G2 d2G2 | ABAG F2D2 |\
G2A2 B2d2 | Tg2fg e2d2 | B2G2 ABAF | G4 z2 :|
